assets/img/cutlery.svg

<svg 
 xmlns="http://www.w3.org/2000/svg"
 xmlns:xlink="http://www.w3.org/1999/xlink"
 width="66px" height="66px">
<defs>
<linearGradient id="PSgrad_0" x1="0%" x2="0%" y1="100%" y2="0%">
  <stop offset="0%" stop-color="rgb(255,255,255)" stop-opacity="1" />
  <stop offset="76%" stop-color="rgb(189,228,244)" stop-opacity="1" />
  <stop offset="100%" stop-color="rgb(123,200,233)" stop-opacity="1" />
</linearGradient>
<linearGradient id="PSgrad_1" x1="0%" x2="0%" y1="100%" y2="0%">
  <stop offset="0%" stop-color="rgb(123,200,233)" stop-opacity="1" />
  <stop offset="24%" stop-color="rgb(189,228,244)" stop-opacity="1" />
  <stop offset="100%" stop-color="rgb(255,255,255)" stop-opacity="1" />
</linearGradient>

</defs>
<path fill-rule="evenodd"  opacity="0.369" fill="rgb(255, 255, 255)"
 d="M38.500,21.000 C50.926,21.000 61.000,31.074 61.000,43.500 C61.000,55.926 50.926,66.000 38.500,66.000 C26.074,66.000 16.000,55.926 16.000,43.500 C16.000,31.074 26.074,21.000 38.500,21.000 Z"/>
<path fill="url(#PSgrad_0)"
 d="M38.500,21.000 C50.926,21.000 61.000,31.074 61.000,43.500 C61.000,55.926 50.926,66.000 38.500,66.000 C26.074,66.000 16.000,55.926 16.000,43.500 C16.000,31.074 26.074,21.000 38.500,21.000 Z"/>
<path fill-rule="evenodd"  opacity="0.588" fill="rgb(255, 255, 255)"
 d="M11.000,0.000 C17.075,0.000 22.000,4.925 22.000,11.000 C22.000,17.075 17.075,22.000 11.000,22.000 C4.925,22.000 0.000,17.075 0.000,11.000 C0.000,4.925 4.925,0.000 11.000,0.000 Z"/>
<path fill="url(#PSgrad_1)"
 d="M11.000,0.000 C17.075,0.000 22.000,4.925 22.000,11.000 C22.000,17.075 17.075,22.000 11.000,22.000 C4.925,22.000 0.000,17.075 0.000,11.000 C0.000,4.925 4.925,0.000 11.000,0.000 Z"/>
<path fill-rule="evenodd"  fill="rgb(0, 111, 235)"
 d="M45.110,46.986 C43.515,46.986 42.218,45.693 42.218,44.104 L42.218,31.059 C41.117,31.026 40.229,30.124 40.229,29.018 L40.229,16.403 C40.229,16.402 40.229,16.402 40.229,16.401 C40.230,11.782 42.584,7.573 46.526,5.144 C46.981,4.864 47.576,5.004 47.857,5.457 C47.978,5.653 48.021,5.876 47.993,6.088 L48.001,6.085 L48.001,30.095 C48.001,30.096 48.001,30.098 48.001,30.100 L48.001,44.104 C48.001,45.693 46.704,46.986 45.110,46.986 ZM46.068,7.861 C43.595,9.989 42.162,13.071 42.162,16.403 C42.162,16.404 42.162,16.404 42.162,16.405 L42.162,29.018 C42.162,29.083 42.215,29.136 42.281,29.136 L46.068,29.136 L46.068,7.861 ZM46.068,31.063 L44.151,31.063 L44.151,44.104 C44.151,44.631 44.581,45.060 45.109,45.060 C45.638,45.060 46.068,44.631 46.068,44.104 L46.068,31.063 ZM31.430,22.755 L31.258,22.755 L32.614,43.070 C32.682,44.083 32.322,45.090 31.625,45.832 C30.929,46.574 29.945,47.000 28.926,47.000 C27.906,47.000 26.922,46.574 26.226,45.832 C25.529,45.090 25.169,44.083 25.237,43.070 L26.593,22.755 L26.421,22.755 C24.846,22.755 23.564,21.478 23.564,19.907 L23.564,5.963 C23.564,5.431 23.997,5.000 24.531,5.000 C25.064,5.000 25.497,5.432 25.497,5.963 L25.497,16.906 L27.959,16.906 L27.959,5.963 C27.959,5.431 28.392,5.000 28.926,5.000 C29.459,5.000 29.892,5.432 29.892,5.963 L29.892,16.906 L32.354,16.906 L32.354,5.963 C32.354,5.431 32.787,5.000 33.321,5.000 C33.854,5.000 34.287,5.431 34.287,5.963 L34.287,19.907 C34.287,21.478 33.006,22.755 31.430,22.755 ZM27.637,44.516 C27.974,44.875 28.432,45.073 28.925,45.073 C29.419,45.073 29.876,44.875 30.214,44.516 C30.551,44.157 30.718,43.689 30.685,43.198 L29.321,22.755 L28.530,22.755 L27.165,43.198 C27.133,43.689 27.300,44.157 27.637,44.516 ZM32.354,18.833 L25.497,18.833 L25.497,19.907 C25.497,20.415 25.911,20.828 26.421,20.828 L27.590,20.828 C27.591,20.828 27.592,20.828 27.593,20.828 L31.430,20.828 C31.940,20.828 32.354,20.415 32.354,19.907 L32.354,18.833 ZM15.073,21.676 L16.494,42.976 C16.563,44.014 16.194,45.045 15.481,45.805 C14.768,46.564 13.761,47.000 12.718,47.000 C11.674,47.000 10.666,46.564 9.953,45.804 C9.240,45.045 8.871,44.014 8.940,42.976 L10.361,21.676 C9.432,21.235 8.586,20.530 7.878,19.589 C6.667,17.979 6.000,15.855 6.000,13.606 C6.000,11.358 6.667,9.233 7.878,7.624 C9.151,5.932 10.870,5.000 12.717,5.000 C14.565,5.000 16.284,5.932 17.557,7.624 C18.768,9.233 19.434,11.358 19.434,13.606 C19.434,15.855 18.767,17.980 17.557,19.589 C16.848,20.530 16.002,21.235 15.073,21.676 ZM11.364,44.488 C11.719,44.866 12.199,45.073 12.718,45.073 C13.236,45.073 13.716,44.866 14.070,44.489 C14.424,44.111 14.600,43.620 14.565,43.104 L13.170,22.192 C13.020,22.204 12.869,22.213 12.717,22.213 C12.565,22.213 12.414,22.204 12.264,22.192 L10.869,43.104 C10.834,43.619 11.010,44.111 11.364,44.488 ZM12.717,6.927 C10.079,6.927 7.933,9.923 7.933,13.606 C7.933,16.765 9.512,19.417 11.626,20.109 C11.654,20.116 11.681,20.125 11.708,20.135 C12.033,20.233 12.371,20.286 12.717,20.286 C15.355,20.286 17.502,17.290 17.502,13.606 C17.502,9.923 15.355,6.927 12.717,6.927 Z"/>
<path fill-rule="evenodd"  fill-opacity="0" fill="rgb(26, 26, 37)"
 d="M0.000,0.000 L66.000,0.000 L66.000,66.000 L0.000,66.000 L0.000,0.000 Z"/>
</svg>

<?xml version="1.0" encoding="utf-8"?>
<!-- Generator: Adobe Illustrator 21.1.0, SVG Export Plug-In . SVG Version: 6.00 Build 0)  -->
<svg version="1.1" id="Слой_1" xmlns="http://www.w3.org/2000/svg" xmlns:xlink="http://www.w3.org/1999/xlink" x="0px" y="0px"
	 viewBox="0 0 66 66" style="enable-background:new 0 0 66 66;" xml:space="preserve">
<style type="text/css">
	.st0{opacity:0.369;fill:#FFFFFF;enable-background:new    ;}
	.st1{opacity:0.4;fill:url(#SVGID_1_);}
	.st2{opacity:0.588;fill:#FFFFFF;enable-background:new    ;}
	.st3{opacity:0.3;fill:url(#SVGID_2_);}
	.st4{fill:#006FEB;}
	.st5{fill:#1A1A25;fill-opacity:0;}
</style>
<path class="st0" d="M38.5,21C50.9,21,61,31.1,61,43.5S50.9,66,38.5,66S16,55.9,16,43.5S26.1,21,38.5,21z"/>
<linearGradient id="SVGID_1_" gradientUnits="userSpaceOnUse" x1="-748.4778" y1="815.9778" x2="-748.4778" y2="816.9778" gradientTransform="matrix(45 0 0 -45 33720 36785)">
	<stop  offset="0" style="stop-color:#FFFFFF"/>
	<stop  offset="0.76" style="stop-color:#BDE4F4"/>
	<stop  offset="1" style="stop-color:#7BC8E9"/>
</linearGradient>
<path class="st1" d="M38.5,21C50.9,21,61,31.1,61,43.5S50.9,66,38.5,66S16,55.9,16,43.5S26.1,21,38.5,21z"/>
<path class="st2" d="M11,0c6.1,0,11,4.9,11,11s-4.9,11-11,11S0,17.1,0,11S4.9,0,11,0z"/>
<linearGradient id="SVGID_2_" gradientUnits="userSpaceOnUse" x1="-730.6818" y1="798.1818" x2="-730.6818" y2="799.1818" gradientTransform="matrix(22 0 0 -22 16086 17582)">
	<stop  offset="0" style="stop-color:#7BC8E9"/>
	<stop  offset="0.24" style="stop-color:#BDE4F4"/>
	<stop  offset="1" style="stop-color:#FFFFFF"/>
</linearGradient>
<path class="st3" d="M11,0c6.1,0,11,4.9,11,11s-4.9,11-11,11S0,17.1,0,11S4.9,0,11,0z"/>
<path class="st4" d="M45.1,47c-1.6,0-2.9-1.3-2.9-2.9v-13c-1.1,0-2-0.9-2-2V16.4c0,0,0,0,0,0c0-4.6,2.4-8.8,6.3-11.3
	c0.5-0.3,1-0.1,1.3,0.3C48,5.7,48,5.9,48,6.1l0,0v24c0,0,0,0,0,0v14C48,45.7,46.7,47,45.1,47z M46.1,7.9c-2.5,2.1-3.9,5.2-3.9,8.5
	c0,0,0,0,0,0V29c0,0.1,0.1,0.1,0.1,0.1h3.8V7.9z M46.1,31.1h-1.9v13c0,0.5,0.4,1,1,1c0.5,0,1-0.4,1-1V31.1z M31.4,22.8h-0.2
	l1.4,20.3c0.1,1-0.3,2-1,2.8c-0.7,0.7-1.7,1.2-2.7,1.2c-1,0-2-0.4-2.7-1.2c-0.7-0.7-1.1-1.7-1-2.8l1.4-20.3h-0.2
	c-1.6,0-2.9-1.3-2.9-2.8V6c0-0.5,0.4-1,1-1c0.5,0,1,0.4,1,1v10.9H28V6c0-0.5,0.4-1,1-1c0.5,0,1,0.4,1,1v10.9h2.5V6c0-0.5,0.4-1,1-1
	c0.5,0,1,0.4,1,1v13.9C34.3,21.5,33,22.8,31.4,22.8z M27.6,44.5c0.3,0.4,0.8,0.6,1.3,0.6c0.5,0,1-0.2,1.3-0.6
	c0.3-0.4,0.5-0.8,0.5-1.3l-1.4-20.4h-0.8l-1.4,20.4C27.1,43.7,27.3,44.2,27.6,44.5z M32.4,18.8h-6.9v1.1c0,0.5,0.4,0.9,0.9,0.9h1.2
	c0,0,0,0,0,0h3.8c0.5,0,0.9-0.4,0.9-0.9V18.8z M15.1,21.7L16.5,43c0.1,1-0.3,2.1-1,2.8c-0.7,0.8-1.7,1.2-2.8,1.2
	c-1,0-2.1-0.4-2.8-1.2C9.2,45,8.9,44,8.9,43l1.4-21.3c-0.9-0.4-1.8-1.1-2.5-2.1C6.7,18,6,15.9,6,13.6c0-2.2,0.7-4.4,1.9-6
	c1.3-1.7,3-2.6,4.8-2.6c1.8,0,3.6,0.9,4.8,2.6c1.2,1.6,1.9,3.7,1.9,6c0,2.2-0.7,4.4-1.9,6C16.8,20.5,16,21.2,15.1,21.7z M11.4,44.5
	c0.4,0.4,0.8,0.6,1.4,0.6c0.5,0,1-0.2,1.4-0.6c0.4-0.4,0.5-0.9,0.5-1.4l-1.4-20.9c-0.1,0-0.3,0-0.5,0s-0.3,0-0.5,0l-1.4,20.9
	C10.8,43.6,11,44.1,11.4,44.5z M12.7,6.9c-2.6,0-4.8,3-4.8,6.7c0,3.2,1.6,5.8,3.7,6.5c0,0,0.1,0,0.1,0c0.3,0.1,0.7,0.2,1,0.2
	c2.6,0,4.8-3,4.8-6.7C17.5,9.9,15.4,6.9,12.7,6.9z"/>
<path class="st5" d="M0,0h66v66H0V0z"/>
</svg>
